X: 3151
T: LINK HIM DODDIE
Q: "Strathspey."
R: Strathspey.
%R: strathspey
B: James Kerr "Merry Melodies" v.3 p.18 #151
Z: 2016 John Chambers <jc:trillian.mit.edu>
M: C
L: 1/16
K: Am
[|\
Ae3 e3d (cA3) c4 | Bg3 g3d BG3 Bd3 |\
Ae3 e3d c3A c4 | Aa3 g3e a3A ce3 |\
Ae3 e3d (cA3) c4 | Bg3 g3d BG3 dB3 |
(ABcd) e3A cA3 c3B | Aa3 ge3 a3Ace3 |[|\
(agfe) a3e (ca3) e4 | (Bg3) g3d (BG3) (Bg3) |\
(agfe) a3e ea3 ca3 |
Aa3 ea3 e3Ace3 |\
(agfe) a3e (ca3) e4 | (Bg3) g3d BG3 (Bd3) |\
(ABcd) e3A cA3 c3B | Aa3 ge3 a3Ace3 |]

%%sep 1 1 500
%%sep 1 1 500

